**kern
*clefC3
*k[]
*M4/4
=1-
8c
4c
8d
4c
4c
=2
4d
(4d
16d)
8c#
8d
8c#
16c#
=3
8B
16A
2.G
16A
=4
2G#
16G#
8G#
(16A#
16G#)
16G#
16G-
16A#
=5
16G
8G
16F
2F
16E
8r
16F
=6
2F
2G-
=7
8A
2G
16G
16G
4F
=8
4r
16G
16G
16F
2G
16F
=9
1r
=10
2G#
4G#
8A#
16A#
=11
*_